src/static/logos/twilio.svg

<?xml version="1.0" encoding="UTF-8" standalone="no"?>
<svg width="256px" height="256px" viewBox="0 0 256 256" version="1.1" xmlns="http://www.w3.org/2000/svg" xmlns:xlink="http://www.w3.org/1999/xlink" preserveAspectRatio="xMidYMid">
    <g fill="#CF272D">
        <path d="M127.859784,222.303602 C75.8546058,222.303602 33.6963983,180.145394 33.6963983,128.141278 C33.6963983,76.1360996 75.8546058,33.9778921 127.859784,33.9778921 C179.8639,33.9778921 222.022108,76.1360996 222.022108,128.141278 C222.022108,180.145394 179.8639,222.303602 127.859784,222.303602 L127.859784,222.303602 Z M127.859784,0.281493776 C57.2452116,0.281493776 0,57.5267054 0,128.141278 C0,198.755851 57.2452116,256 127.859784,256 C198.474357,256 255.718506,198.755851 255.718506,128.141278 C255.718506,57.5267054 198.474357,0.281493776 127.859784,0.281493776 L127.859784,0.281493776 Z"></path>
        <path d="M133.115751,96.2974274 C133.115751,81.6151369 145.01922,69.711668 159.70151,69.711668 C174.384863,69.711668 186.28727,81.6151369 186.28727,96.2974274 C186.28727,110.98078 174.384863,122.883187 159.70151,122.883187 C145.01922,122.883187 133.115751,110.98078 133.115751,96.2974274"></path>
        <path d="M133.115751,159.983004 C133.115751,145.300714 145.01922,133.397245 159.70151,133.397245 C174.384863,133.397245 186.28727,145.300714 186.28727,159.983004 C186.28727,174.666357 174.384863,186.568763 159.70151,186.568763 C145.01922,186.568763 133.115751,174.666357 133.115751,159.983004"></path>
        <path d="M69.4312365,159.983004 C69.4312365,145.300714 81.3347054,133.397245 96.0169959,133.397245 C110.700349,133.397245 122.602755,145.300714 122.602755,159.983004 C122.602755,174.666357 110.700349,186.568763 96.0169959,186.568763 C81.3347054,186.568763 69.4312365,174.666357 69.4312365,159.983004"></path>
        <path d="M69.4312365,96.2984896 C69.4312365,81.6151369 81.3347054,69.7127303 96.0169959,69.7127303 C110.700349,69.7127303 122.602755,81.6151369 122.602755,96.2984896 C122.602755,110.981842 110.700349,122.884249 96.0169959,122.884249 C81.3347054,122.884249 69.4312365,110.981842 69.4312365,96.2984896"></path>
    </g>
</svg>

<svg width="256" height="256" xmlns="http://www.w3.org/2000/svg" preserveAspectRatio="xMidYMid"><g fill="#CF272D"><path d="M127.86 222.304c-52.005 0-94.164-42.159-94.164-94.163 0-52.005 42.159-94.163 94.164-94.163 52.004 0 94.162 42.158 94.162 94.163 0 52.004-42.158 94.163-94.162 94.163zm0-222.023C57.245.281 0 57.527 0 128.141 0 198.756 57.245 256 127.86 256c70.614 0 127.859-57.244 127.859-127.859 0-70.614-57.245-127.86-127.86-127.86z"/><path d="M133.116 96.297c0-14.682 11.903-26.585 26.586-26.585 14.683 0 26.585 11.903 26.585 26.585 0 14.684-11.902 26.586-26.585 26.586-14.683 0-26.586-11.902-26.586-26.586m0 63.686c0-14.682 11.903-26.586 26.586-26.586 14.683 0 26.585 11.904 26.585 26.586 0 14.683-11.902 26.586-26.585 26.586-14.683 0-26.586-11.903-26.586-26.586m-63.685 0c0-14.682 11.904-26.586 26.586-26.586 14.683 0 26.586 11.904 26.586 26.586 0 14.683-11.903 26.586-26.586 26.586-14.682 0-26.586-11.903-26.586-26.586m0-63.685c0-14.683 11.904-26.585 26.586-26.585 14.683 0 26.586 11.902 26.586 26.585 0 14.684-11.903 26.586-26.586 26.586-14.682 0-26.586-11.902-26.586-26.586"/></g></svg>
